X: 14
T: Dowd's Favourite
Z: Thomas Foschini
S: https://thesession.org/tunes/229#setting51929
R: reel
M: 4/4
L: 1/8
K: Gdor
F|:DGGA BABF|DF~F2 CFAF|DGGA BABd|1 cAFG AGGF:|2 cAFG AGGA||
B2dB FBdB|DBdB cAFA| B2dB DBdB|c=BcA _BGGA|
BABd c=BcA | BABG cAFA |GBAc Bbag| fdcA BGGd||
gd~d2 gbag|f2fe fgaf|g2gd gbag|fdcA BGGd|
gdd2 g2ag|fcc2 fcAF|GBAc Bbag| fdcA BGGd||

%-------------------- TUNE SEPARATOR --------------------%

